X:1
T:Title
L:1/8
Q:1/4=80
M:6/8
K:G
V:1 treble nm="Church Organ, Staff"
V:1
 BB>A G F2 | AA>G F E2 | F G2 AB>c | d c2 B A2 | BB>A G F2 | AA>G F E2 | e ^d2 e G2 | %7
w: By~T.~H.~Spinney * * * *|||||||
 F E2- E/ z/ E2 | z2 d- d3/2 z/ e- | eBc- c/B/cd- | dcB- B/ z/ dd | cBA- A/ z/ GA- | %12
w: |||||
 A2 d- d3/2 z/ e- | eBc- c/B/cd- | dcB- B/A/GA | GFE- E3/2 z/ E- | E3 z3 |] %17
w: |||||

